img/logos/tencent.svg

<?xml version="1.0" encoding="UTF-8" standalone="no"?>
<svg width="185px" height="23px" viewBox="0 0 185 23" version="1.1" xmlns="http://www.w3.org/2000/svg" xmlns:xlink="http://www.w3.org/1999/xlink">
    <!-- Generator: Sketch 45 (43475) - http://www.bohemiancoding.com/sketch -->
    <title>Shape</title>
    <desc>Created with Sketch.</desc>
    <defs></defs>
    <g id="Page-1" stroke="none" stroke-width="1" fill="none" fill-rule="evenodd" opacity="0.597423041">
        <g id="Envoy-R2" transform="translate(-505.000000, -1229.000000)" fill-rule="nonzero" fill="#222222">
            <g id="Group-22" transform="translate(298.000000, 1005.000000)">
                <g id="tencent" transform="translate(207.000000, 224.000000)">
                    <path d="M0.881073892,0.0150384615 L0.0446551724,3.18107692 L7.79478818,3.18107692 L4.95125616,14.2219615 L2.86030049,22.3673231 L7.93422167,22.3673231 L10.0249951,14.2219615 L12.8685271,3.18107692 L20.5907734,3.18107692 L21.3993054,0.0148615385 L0.881073892,0.0148615385 L0.881073892,0.0150384615 Z M155.771823,0.258661538 C155.359172,1.90386923 154.980059,3.1878 154.600946,4.29073846 L152.705379,4.29073846 L153.318522,3.91176923 C154.375665,3.24600769 154.896399,2.90401538 154.9077,2.85642308 C154.343404,1.6192 153.866049,0.765192308 153.430251,0.339692308 C153.418039,0.262730769 152.61297,0.740246154 151.060611,1.71986923 L150.530946,2.04452308 C150.542246,2.06840769 150.605675,2.16023077 150.72597,2.31503846 C151.272404,3.00450769 151.734084,3.65399231 152.092054,4.29056154 L150.530946,4.29056154 L150.029167,6.56384615 L153.541616,6.56384615 L153.290818,7.02402308 L153.039837,7.48402308 L149.24834,7.48402308 L148.774448,9.75730769 L151.394887,9.75730769 C150.27632,11.0821077 148.945961,12.1461231 147.408365,12.9505923 L149.861665,1.58487692 L143.087202,1.58487692 L140.550424,13.3293846 C140.482256,13.6367 140.40534,13.9291538 140.327148,14.2223154 C139.737335,16.4945385 138.859724,18.5326923 137.678823,20.3381923 C138.394946,20.9519385 138.978015,21.6099154 139.463025,22.3135385 C140.882512,20.3479231 141.997798,17.8311923 142.836404,14.7364538 L144.313852,14.7364538 L143.477433,18.5792231 C143.411635,19.1053923 142.860645,19.3422923 141.860552,19.2557769 C142.069064,20.1963 142.158374,21.1382385 142.083645,22.1242308 C144.497941,22.1090154 145.716754,21.5809 145.763414,20.5006077 L147.129498,14.2223154 L147.212975,13.7893846 C147.357712,13.9287795 147.497235,14.0731831 147.631276,14.2223154 C147.956803,14.5947385 148.20997,14.9607923 148.384034,15.3318 C148.754034,15.1543462 149.193478,14.8815308 149.694163,14.4657615 L148.80197,17.2800769 L156.914631,17.2800769 L156.775015,18.0107692 C156.453862,19.5305385 156.002389,20.2688385 155.436818,20.1756 L155.882823,18.0107692 L147.184906,18.0107692 L146.682946,20.2568077 L153.764163,20.2568077 C154.168975,21.1042692 154.341764,21.9724308 154.265941,22.8816385 C156.52531,22.8103385 157.909074,22.4725923 158.44767,21.8533615 C158.616084,21.6727231 158.793246,21.3588615 158.977335,20.8250846 C159.346424,19.7524 159.778941,18.1838 160.315532,16.1164538 L160.622103,14.9259385 L157.611251,14.9259385 L157.778571,14.2221385 L158.001665,13.1399 C158.53698,13.5944154 159.011966,13.9484385 159.423522,14.2221385 C159.727906,14.4247154 159.996749,14.5795231 160.232054,14.6823154 C160.361281,14.5253846 160.494153,14.3705769 160.622286,14.2221385 C161.398557,13.3076231 162.13564,12.5454385 162.824788,11.9221385 C161.007049,11.4198538 159.675778,10.6988923 158.838084,9.75730769 L162.824788,9.75730769 L163.29868,7.48402308 L156.133985,7.48402308 C156.325911,7.21120769 156.504167,6.91804615 156.635764,6.56402308 L162.546103,6.56402308 L163.019995,4.29091538 L160.901335,4.29091538 C161.826882,3.41302308 162.640882,2.691 163.38234,2.12608462 L160.901335,0.637630769 C160.106291,1.62256154 159.248729,2.58166154 158.308601,3.50608462 L159.814118,4.39901538 L157.667571,4.39901538 L157.974325,3.45194615 L158.364557,2.5047 C158.690266,1.70695385 158.957833,1.10081538 159.145202,0.718661538 C159.163064,0.561730769 159.057167,0.482646154 158.726901,0.447969231 C158.101547,0.352784615 157.118951,0.289976923 155.771823,0.258661538 L155.771823,0.258661538 Z M170.77031,0.447969231 C170.014271,0.691592308 168.838837,1.13637692 167.201906,1.8009 C167.71699,3.22654615 168.088266,4.64883077 168.344897,6.0766 C168.923591,5.86323077 170.179039,5.44445385 172.080438,4.77763077 C171.287764,2.00666154 170.833921,0.557307692 170.77031,0.447969231 L170.77031,0.447969231 Z M173.530365,1.66573077 L172.944744,4.29073846 L175.174951,4.29073846 L174.115621,9.18867692 L171.32768,9.18867692 L170.742241,11.8135077 L173.557887,11.8135077 L173.028222,14.2217846 L171.32768,22.0424923 L174.450079,22.0424923 L176.122916,14.2217846 L176.652581,11.8135077 L178.882606,11.8135077 L178.436601,13.7888538 C178.40434,13.9349923 178.380828,14.0781231 178.353123,14.2217846 C177.782084,17.1238538 178.075532,19.3936 179.217246,21.0142154 C179.912956,21.9743769 180.752837,22.3804154 181.754207,22.2321538 C182.791118,22.2839923 183.829488,20.6591308 184.848719,17.3611077 C184.007429,16.9907419 183.161718,16.6299122 182.311759,16.2786923 C181.805606,17.7897923 181.491015,18.2800462 181.363975,17.7400769 C181.164394,16.9694 181.205768,15.7971077 181.475522,14.2219615 C181.562463,13.7133077 181.67401,13.1666154 181.80998,12.5712692 L184.179621,1.66573077 L173.530365,1.66573077 L173.530365,1.66573077 Z M127.224591,1.93642308 L126.165443,6.10384615 L122.095079,6.10384615 L121.314616,9.18885385 L136.201557,9.18885385 L127.224591,1.93642308 L127.224591,1.93642308 Z M145.178158,3.91176923 L146.655606,3.91176923 L145.958621,7.13194615 L144.509059,7.13194615 L145.178158,3.91176923 L145.178158,3.91176923 Z M178.269645,4.29073846 L180.611399,4.29073846 L179.552069,9.18867692 L177.210315,9.18867692 L178.269645,4.29073846 Z M27.225803,5.18366923 C24.1323842,5.18366923 21.4496108,5.9685 19.1690985,7.53798462 C16.9009803,9.13029231 15.4279064,11.2162154 14.7642759,13.7890308 C14.7252709,13.9397692 14.6840788,14.0747615 14.6529113,14.2219615 C14.1432956,16.6111308 14.5949507,18.5594077 16.0189951,20.0402538 C17.5365419,21.5989462 19.8784778,22.3673231 23.0442562,22.3673231 C28.4402414,22.3673231 32.5764039,19.1719154 32.9967094,18.8224923 L30.6549557,18.3083538 C30.1041478,18.4316692 27.1044138,19.2750615 24.1035862,19.0119769 C20.3177389,18.6818385 19.459266,15.9910154 19.6710591,14.6550692 L34.8645714,14.6550692 L35.0040049,14.2221385 L35.1155517,13.7621385 C35.8046995,11.0798077 35.4399852,8.97017692 34.028335,7.45695385 C32.6050197,5.93063846 30.3503892,5.18366923 27.225803,5.18366923 L27.225803,5.18366923 Z M72.2489704,5.18366923 C68.9938818,5.18366923 66.0499212,6.00317692 63.383734,7.67333077 C60.7129901,9.34472308 59.0747833,11.4152538 58.4492463,13.8433462 C58.414798,13.9763923 58.3644926,14.0910385 58.3378818,14.2221385 C57.870734,16.4757846 58.4895271,18.3821308 60.1778571,19.9319769 C61.9686207,21.5577231 64.5033941,22.3675 67.7885567,22.3675 C69.7790837,22.3675 71.86767,21.9669462 74.0610591,21.1769846 L75.3434828,16.2249077 C73.8849901,17.3149308 72.6616207,18.0390769 71.6914187,18.4169846 C70.6902315,18.8065692 69.6072069,19.0121538 68.4295862,19.0121538 C66.5841429,19.0121538 65.1879852,18.5316308 64.2480394,17.5509462 C63.4161773,16.6675692 63.1183547,15.5462308 63.3558473,14.2223154 C63.3824581,14.0763538 63.4282069,13.9399462 63.4672118,13.7893846 C63.8519754,12.2979231 64.7775222,11.0444231 66.2551527,10.0550692 C67.7293202,9.06571538 69.3986946,8.56661538 71.2452315,8.56661538 C72.4217586,8.56661538 73.3740985,8.76052308 74.1445369,9.16196154 C74.9297389,9.55048462 75.7524877,10.2801154 76.5978374,11.3267923 L77.8802611,6.32057692 C76.2178128,5.55273077 74.3421133,5.18366923 72.2489704,5.18366923 L72.2489704,5.18366923 Z M90.6206552,5.18366923 C87.5261429,5.18366923 84.8433695,5.9685 82.5639507,7.53798462 C80.2947389,9.13029231 78.821665,11.2162154 78.1591281,13.7890308 C78.1201232,13.9397692 78.0798424,14.0747615 78.0477635,14.2219615 C77.5370542,16.6111308 77.9874335,18.5594077 79.413665,20.0402538 C80.9292069,21.5989462 83.2744236,22.3673231 86.4391084,22.3673231 C91.8329064,22.3673231 95.9723498,19.1719154 96.3915616,18.8224923 L94.0498079,18.3083538 C93.499,18.4316692 90.499266,19.2750615 87.4984384,19.0119769 C83.7136847,18.6818385 82.8517488,15.9910154 83.0659113,14.6550692 L98.2594236,14.6550692 L98.3988571,14.2221385 L98.5104039,13.7621385 C99.2017389,11.0798077 98.8605369,8.97017692 97.4510739,7.45695385 C96.0279409,5.93063846 93.7465172,5.18366923 90.6206552,5.18366923 L90.6206552,5.18366923 Z M51.0895271,5.64366923 C48.9396995,5.64366923 46.8376256,6.28873077 44.7891379,7.59212308 L40.2448818,6.10384615 L38.1539261,14.2219615 L36.0629704,22.3673231 L40.9974581,22.3673231 L43.0045714,14.5199 C43.0304532,14.4192308 43.062532,14.3130769 43.0882315,14.2219615 C43.6011281,12.3517077 44.2891823,11.0180615 45.1234138,10.2442 C46.0176108,9.42150769 47.259936,9.02643846 48.8868424,9.02643846 C50.3832463,9.02643846 51.3523547,9.3219 51.7582611,9.94643846 C52.180936,10.557 52.1720049,11.6717923 51.7582611,13.2748923 L51.5351675,14.2219615 L49.4165074,22.3673231 L54.3508128,22.3673231 L56.4417685,14.2219615 L56.9158424,12.3819615 C57.5078424,10.0883308 57.3450788,8.44630769 56.4138818,7.42988462 C55.340335,6.23901538 53.5605074,5.64366923 51.0895271,5.64366923 L51.0895271,5.64366923 Z M114.066261,5.64366923 C111.915158,5.64366923 109.816547,6.28873077 107.765872,7.59212308 L103.221616,6.10384615 L101.13066,14.2219615 L99.0398867,22.3673231 L103.974192,22.3673231 L105.981488,14.5199 C106.008099,14.4192308 106.038355,14.3130769 106.065148,14.2219615 C106.580232,12.3517077 107.263729,11.0180615 108.100148,10.2442 C108.995621,9.42150769 110.234483,9.02643846 111.863576,9.02643846 C113.359069,9.02643846 114.327995,9.3219 114.735177,9.94643846 C115.156576,10.557 115.148921,11.6717923 114.735177,13.2748923 L114.484197,14.2219615 L112.393241,22.3673231 L117.327729,22.3673231 L119.418502,14.2219615 L119.892576,12.3819615 C120.484759,10.0883308 120.320901,8.44630769 119.390798,7.42988462 C118.318163,6.23901538 116.535054,5.64366923 114.066261,5.64366923 L114.066261,5.64366923 Z M164.163167,7.3485 L163.577729,10.0005769 L166.337783,10.0005769 L165.417704,14.2219615 L164.832266,17.0364538 C164.705227,17.6252538 164.220217,18.239 163.382522,18.9035231 C163.136099,19.1006154 162.984453,19.2272923 162.964404,19.2826692 C163.271158,20.2147 163.817591,21.1237308 164.581286,21.9616385 C164.640522,21.9768538 164.967143,21.6974923 165.529069,21.1497385 C166.367857,20.2870615 168.495266,18.3853154 171.941187,15.4400769 C171.929887,15.4020385 171.74033,15.0071462 171.383635,14.2764538 L171.355749,14.2221385 L170.85397,13.1399 L170.296419,13.5999 C170.02867,13.8283077 169.769852,14.0384923 169.54366,14.2223154 C168.941453,14.7288462 168.48433,15.1003846 168.177576,15.3318 L168.428557,14.2223154 L169.906005,7.34885385 L164.163167,7.34885385 L164.163167,7.3485 L164.163167,7.3485 Z M26.4453399,8.56626154 C29.0614039,8.56626154 30.4597488,9.56428462 30.6268867,11.5700615 L20.7859803,11.5700615 C21.064665,11.1024538 21.3881872,10.6932308 21.7897192,10.3252308 C22.1877882,9.95935385 22.6370739,9.63346154 23.1279163,9.37798462 C23.6318818,9.10941538 24.1593596,8.91692308 24.7169113,8.78263846 C25.2808028,8.63733342 25.8619201,8.56458503 26.4453399,8.56626154 L26.4453399,8.56626154 Z M89.8401921,8.56626154 C92.4562562,8.56626154 93.8567882,9.56428462 94.0217389,11.5700615 L84.1808325,11.5700615 C84.4618867,11.1024538 84.7863202,10.6932308 85.1843892,10.3252308 C85.5848276,9.95935385 86.0375764,9.63346154 86.5225862,9.37798462 C87.0311084,9.10941538 87.5542118,8.91692308 88.1117635,8.78263846 C88.6756753,8.63743386 89.256779,8.56468719 89.8401921,8.56626154 L89.8401921,8.56626154 Z M144.007281,9.37816154 L145.456842,9.37816154 L144.815631,12.3819615 L143.365887,12.3819615 L144.007281,9.37816154 Z M154.684788,9.75695385 L155.548911,9.75695385 C155.668745,10.0893483 155.827829,10.4071547 156.022985,10.7040231 L153.904143,10.7040231 L154.294557,10.2169538 L154.684788,9.75695385 L154.684788,9.75695385 Z M125.189591,9.8923 L124.074488,14.2219615 L121.955828,22.3673231 L126.862246,22.3673231 L128.981089,14.2219615 L130.096192,9.8923 L125.189591,9.8923 L125.189591,9.8923 Z M151.673754,12.8419615 L155.158498,12.8419615 L154.879813,14.2219615 L154.684788,15.0069692 L152.287261,15.0069692 C152.376571,14.7168154 152.456768,14.4570923 152.538241,14.2219615 C152.630833,13.9514462 152.705562,13.7209154 152.789222,13.5183385 C152.672025,13.4534077 152.600759,13.4102385 152.538241,13.4102385 L151.088498,13.4102385 L151.673754,12.8419615 L151.673754,12.8419615 Z" id="Shape"></path>
                </g>
            </g>
        </g>
    </g>
</svg>

<svg width="185" height="23" xmlns="http://www.w3.org/2000/svg"><path d="M.881.015.045 3.181h7.75L4.95 14.222l-2.09 8.145h5.073l2.091-8.145 2.843-11.041h7.723l.808-3.166H.881zm154.89.244c-.413 1.645-.792 2.929-1.17 4.032h-1.896l.613-.38c1.057-.665 1.578-1.007 1.589-1.055-.564-1.237-1.042-2.09-1.477-2.516-.013-.077-.818.4-2.37 1.38l-.53.325c.012.024.075.115.195.27.547.69 1.008 1.34 1.366 1.976h-1.56l-.503 2.273h3.513l-.25.46-.252.46h-3.791l-.474 2.273h2.62a13.143 13.143 0 0 1-3.986 3.194l2.453-11.366h-6.775L140.55 13.33c-.069.307-.145.6-.224.893-.59 2.272-1.467 4.31-2.648 6.116.716.613 1.3 1.271 1.784 1.975 1.42-1.966 2.535-4.482 3.374-7.577h1.477l-.836 3.843c-.066.526-.617.763-1.617.676.208.94.298 1.883.223 2.869 2.414-.016 3.633-.544 3.68-1.624l1.366-6.278.083-.433c.145.14.284.284.418.433.326.372.58.738.753 1.11.37-.178.81-.451 1.31-.867l-.892 2.814h8.113l-.14.731c-.32 1.52-.772 2.258-1.338 2.165l.446-2.165h-8.698l-.502 2.246h7.081c.405.848.578 1.716.502 2.625 2.26-.071 3.643-.41 4.182-1.028.168-.181.345-.495.53-1.029.369-1.072.801-2.64 1.338-4.708l.306-1.19h-3.01l.167-.705.223-1.082c.535.455 1.01.809 1.422 1.082.304.203.573.358.808.46.13-.156.262-.311.39-.46a24.341 24.341 0 0 1 2.203-2.3c-1.818-.502-3.149-1.223-3.987-2.164h3.987l.474-2.274h-7.165a4 4 0 0 0 .502-.92h5.91l.474-2.273H160.9c.926-.878 1.74-1.6 2.481-2.165l-2.48-1.488a33.665 33.665 0 0 1-2.593 2.868l1.505.893h-2.146l.306-.947.39-.947c.326-.798.594-1.404.781-1.786.018-.157-.088-.236-.418-.27-.625-.096-1.608-.159-2.955-.19zm14.998.189c-.756.244-1.931.688-3.568 1.353a26.136 26.136 0 0 1 1.143 4.276c.578-.214 1.834-.633 3.735-1.3-.793-2.77-1.246-4.22-1.31-4.33zm2.76 1.218-.585 2.625h2.23l-1.06 4.898h-2.787l-.586 2.624h2.816l-.53 2.409-1.7 7.82h3.122l1.673-7.82.53-2.409h2.23l-.447 1.976c-.032.146-.055.289-.083.433-.571 2.902-.278 5.171.864 6.792.696.96 1.536 1.366 2.537 1.218 1.037.052 2.075-1.573 3.095-4.871-.842-.37-1.687-.731-2.537-1.082-.507 1.51-.821 2.001-.948 1.461-.2-.77-.158-1.943.111-3.518.087-.509.199-1.055.335-1.65l2.37-10.907h-10.65zm-46.306.27-1.059 4.168h-4.07l-.78 3.085H136.2l-8.977-7.253zm17.954 1.976h1.478l-.697 3.22h-1.45l.67-3.22zm33.091.379h2.342l-1.06 4.898h-2.341l1.06-4.898zm-151.04.893c-3.093 0-5.776.784-8.057 2.354-2.268 1.592-3.74 3.678-4.404 6.251-.04.15-.08.286-.112.433-.51 2.39-.058 4.337 1.366 5.818 1.518 1.559 3.86 2.327 7.026 2.327 5.396 0 9.532-3.195 9.952-3.545l-2.342-.514c-.55.124-3.55.967-6.551.704-3.786-.33-4.644-3.021-4.432-4.357h15.194l.139-.433.111-.46c.69-2.682.325-4.792-1.087-6.305-1.423-1.526-3.678-2.273-6.802-2.273zm45.023 0c-3.255 0-6.199.82-8.865 2.49-2.67 1.67-4.309 3.741-4.935 6.17-.034.132-.084.247-.11.378-.468 2.254.15 4.16 1.84 5.71 1.79 1.626 4.325 2.435 7.61 2.435 1.99 0 4.079-.4 6.272-1.19l1.283-4.952c-1.459 1.09-2.682 1.814-3.652 2.192a8.905 8.905 0 0 1-3.262.595c-1.846 0-3.242-.48-4.182-1.461-.832-.883-1.13-2.005-.892-3.329.027-.146.072-.282.111-.433.385-1.491 1.31-2.745 2.788-3.734 1.475-.99 3.144-1.488 4.99-1.488 1.177 0 2.13.193 2.9.595.785.388 1.608 1.118 2.453 2.165l1.282-5.006c-1.662-.768-3.538-1.137-5.63-1.137zm18.372 0c-3.094 0-5.777.784-8.057 2.354-2.269 1.592-3.742 3.678-4.404 6.251-.04.15-.08.286-.112.433-.51 2.39-.06 4.337 1.366 5.818 1.516 1.559 3.861 2.327 7.026 2.327 5.393 0 9.533-3.195 9.952-3.545l-2.342-.514c-.55.124-3.55.967-6.551.704-3.785-.33-4.647-3.021-4.433-4.357h15.194l.14-.433.111-.46c.692-2.682.35-4.792-1.059-6.305-1.423-1.526-3.705-2.273-6.83-2.273zm-39.53.46c-2.15 0-4.253.645-6.301 1.948l-4.545-1.488-2.09 8.118-2.092 8.145H41l2.007-7.847c.026-.1.058-.207.084-.298.513-1.87 1.2-3.204 2.035-3.978.894-.822 2.136-1.218 3.763-1.218 1.497 0 2.466.296 2.872.92.422.611.413 1.726 0 3.329l-.223.947-2.12 8.145h4.935l2.091-8.145.474-1.84c.592-2.294.43-3.936-.502-4.952-1.073-1.191-2.853-1.786-5.324-1.786zm62.976 0c-2.15 0-4.25.645-6.3 1.948l-4.545-1.488-2.09 8.118-2.091 8.145h4.934l2.007-7.847c.027-.1.057-.207.084-.298.515-1.87 1.199-3.204 2.035-3.978.895-.822 2.134-1.218 3.763-1.218 1.496 0 2.465.296 2.872.92.421.611.414 1.726 0 3.329l-.251.947-2.091 8.145h4.934l2.091-8.145.474-1.84c.592-2.294.429-3.936-.501-4.952-1.073-1.191-2.856-1.786-5.325-1.786zm50.097 1.704-.585 2.653h2.76l-.92 4.221-.586 2.814c-.127.59-.612 1.203-1.45 1.868-.246.197-.397.323-.418.379.307.932.854 1.84 1.617 2.679.06.015.386-.264.948-.812.839-.863 2.966-2.765 6.412-5.71-.011-.038-.2-.433-.557-1.163l-.028-.055-.502-1.082-.557.46c-.268.228-.527.439-.753.622a36.7 36.7 0 0 1-1.366 1.11l.25-1.11 1.478-6.873h-5.743zM26.446 8.566c2.616 0 4.015.998 4.182 3.004h-9.841a5.42 5.42 0 0 1 1.003-1.245 6.262 6.262 0 0 1 1.339-.947 6.666 6.666 0 0 1 1.589-.595 6.85 6.85 0 0 1 1.728-.217zm63.395 0c2.616 0 4.017.998 4.182 3.004h-9.841a5.575 5.575 0 0 1 1.003-1.245 6.474 6.474 0 0 1 2.928-1.542 6.859 6.859 0 0 1 1.728-.217zm54.167.812h1.45l-.641 3.004h-1.45l.641-3.004zm10.678.379h.864c.12.332.28.65.474.947h-2.118l.39-.487.39-.46zm-29.495.135-1.115 4.33-2.119 8.145h4.907l2.119-8.145 1.115-4.33h-4.907zm26.484 2.95h3.485l-.279 1.38-.195.785h-2.397c.089-.29.17-.55.25-.785.093-.27.168-.501.252-.704-.118-.065-.189-.108-.251-.108h-1.45l.585-.568z" fill="#222" fill-rule="nonzero" opacity=".597"/></svg>
